X:1190
T:Colla Citheach
O:england
S:Alexander Mackay, A collection of Reels...
B:NLS Glen.344
N:Mc16 in Gore's Scottish Fiddle Music Index
N:Gore guesses 1802, a note (by Murdoch Henderson?)
N:on the titlepage says there's an 1832 watermark.
M:6/8
L:1/8
K:G
BAG    BAA   |BAG        ged |BAG    BAA   |BAG    e2e   :|
B2z/g/ B2z/a/|e2z/g/ ({g}f)ed|B2z/g/ B2z/a/|e2z/g/ e2z/d/ |
B2z/g/ B2z/a/|e2g/z/ ({g}f)ed|B2g/z/ B2a/z/|e2g/z/ e2d/z/|]


